X: 612
%
T: Timour the Tartar
C:
O:Scotland
B:Keith Norman MacDonald : "The Skye collection of the best reels & strathspeys extant" : 1887
Z:Ralph Palmer
R:Reel
M:C
L:1/8
K:A
E !segno!| A2 (c/2B/2A) eA (c/2B/2A) | (eA)aA gAfA | A2 (c/2B/2A) eA (c/2B/2A) | BEdE cEBE |
A2 (c/2B/2A) eA (c/2B/2A) | (eA)aA gAfA | eaec eaec | {/c}BABc A2 A2 ||
E2 (G/2F/2E) BE (G/2F/2E) | BEdE cEBE | A2 (c/2B/2A) eA (c/2B/2A) | (eA)aA gAfA |
(e^d)ec (ag)af | e^dec (ag)af | ecag fedc | BAGF EFGE !segno!|]


